!!!COM: Schiørring, Niels
!!!CDT: 1743-1798
!!!OPR@@DA: Choral-Bog
!!!ONM: 39
!!!OTL@@DA: Hvor got er det i Jeſu Arme
**kern	**fb	**kern	**kern	**kern	**kern	**kern	**kern	**kern
*part6	*part6	*part6	*part5	*part5	*part4	*part3	*part2	*part1
*staff8	*	*staff7	*staff6	*staff5	*staff4	*staff3	*staff2	*staff1
*clefF4	*	*clefC1	*clefF4	*clefC1	*clefF4	*clefC4	*clefC3	*clefC1
*k[f#c#g#]	*	*k[f#c#g#]	*k[f#c#g#]	*k[f#c#g#]	*k[f#c#g#]	*k[f#c#g#]	*k[f#c#g#]	*k[f#c#g#]
*A:	*	*A:	*A:	*A:	*A:	*A:	*A:	*A:
*M4/4	*	*M4/4	*M4/4	*M4/4	*M4/4	*M4/4	*M4/4	*M4/4
*met(c)	*	*met(c)	*met(c)	*met(c)	*met(c)	*met(c)	*met(c)	*met(c)
*MM180	*	*MM180	*MM180	*MM180	*MM180	*MM180	*MM180	*MM180
*	*	*	*^	*^	*	*	*	*
2AA	.	2a	2ryy	2AA	2c#	2e	2AA	2c#	2e	2a
=1	=1	=1	=1	=1	=1	=1	=1	=1	=1	=1
2A	.	2cc#	1ryy	2A	2e	2a	2A	2A	2e	2cc#
2D#X	7 5	2cc#	.	2D#X	2f#	2a	2D#X	2A	2f#	2cc#
=2	=2	=2	=2	=2	=2	=2	=2	=2	=2	=2
2E	.	2b	2B	2E	2b	2g#	2E	2G#	2g#	2b
2C#	.	2ee	2c#	2C#	2ee	2g#	2C#	2c#	2g#	2ee
=3	=3	=3	=3	=3	=3	=3	=3	=3	=3	=3
2F#	.	2a	2c#	2F#	2a	2f#	2F#	2c#	2f#	2a
2G#	5	2dd	2B	2G#	2dd	2e	2G#	2B	2e	2dd
=4	=4	=4	=4	=4	=4	=4	=4	=4	=4	=4
2A	.	1cc#	[2A	2A	1cc#	2e	(2A	1A	(2e	1cc#
2D#X	7 5	.	2A]	2D#X	.	2f#	2D#X)	.	2f#)	.
=5	=5	=5	=5	=5	=5	=5	=5	=5	=5	=5
2E	.	2b	2G#	2E	2b	2g#	2E	2G#	2g#	2b
2Dni	6	2b	2B	2Dni	2b	2f#	2Dni	2B	2f#	2b
=6	=6	=6	=6	=6	=6	=6	=6	=6	=6	=6
2C#	#	2cc#	2G#	2C#	2cc#	2e#X	2C#	2G#	2e#X	2cc#
2E#X	5	2b	2c#	2E#X	2b	2g#	2E#X	2c#	2g#	2b
=7	=7	=7	=7	=7	=7	=7	=7	=7	=7	=7
2F#	.	2a	2c#	2F#	2a	2f#	2F#	2c#	2f#	2a
2Eni	6	2cc#	2eni	2Eni	2cc#	2g#	2Eni	2e	2g#	2cc#
=8	=8	=8	=8	=8	=8	=8	=8	=8	=8	=8
2D#X	6	2b	1B	2D#X	2b	2f#	2D#X	2B	2f#	2b
2BB	7 #	2a	.	2BB	2a	2d#X	2BB	2B	2d#X	2a
=	=	=	=	=	=	=	=	=	=	=
2E	.	2g#	2B	2E	2g#	2e	2E	2B	2e	2g#
=9:|!	=9:|!	=9:|!	=9:|!	=9:|!	=9:|!	=9:|!	=9:|!	=9:|!	=9:|!	=9:|!
[2E	.	2e	2G#	[2E	2e	2B	[2E	2G#	2B	2e
=10	=10	=10	=10	=10	=10	=10	=10	=10	=10	=10
2E]	2	2f#	2A	2E]	2f#	2c#	2E]	2A	2c#	2f#
2Dn	4 2	2g#	2B	2Dn	2g#	2e	2Dn	2B	2e	2g#
=11	=11	=11	=11	=11	=11	=11	=11	=11	=11	=11
2C#	6	2a	2A	2C#	2a	2e	2C#	2A	2e	2a
2F#	.	2a	2A	2F#	2a	2c#	2F#	2c#	2f#	2a
=12	=12	=12	=12	=12	=12	=12	=12	=12	=12	=12
2D#X	5	2a	1B	2D#X	2a	2f#	2D#X	2B	2f#	2a
2E	.	2g#	.	2E	2g#	[2e	2E	2B	[2e	2g#
=13	=13	=13	=13	=13	=13	=13	=13	=13	=13	=13
2AA	6 5	1f#	2ryy	2AA	2c#	2e]	(2AA	(2c#	(2e]	1f#
2BB	#	.	4B	2BB	4ryy	2d#X	2BB)	4B	2d#X)	.
.	.	.	4A	.	4ryy	.	.	4A)	.	.
=14	=14	=14	=14	=14	=14	=14	=14	=14	=14	=14
2E	.	2e	2G#	2E	2e	2B	2E	2G#	2e	2e
4A	.	2e	2A	4A	2e	2c#	4A	2A	2c#	2e
4G#	.	.	.	4G#	.	.	4G#	.	.	.
=15	=15	=15	=15	=15	=15	=15	=15	=15	=15	=15
2F#	.	2a	2A	2F#	2a	2c#	2F#	2A	2c#	2a
2C#	6	2a	[2A	2C#	2a	2e	2C#	[2A	2e	2a
=16	=16	=16	=16	=16	=16	=16	=16	=16	=16	=16
2D	6 5	2b	2A]	2D	2b	2f#	2D	2A]	2f#	2b
2E	6	2cc#	2G#	2E	2cc#	2e	2E	2G#	2g#	2cc#
=17	=17	=17	=17	=17	=17	=17	=17	=17	=17	=17
2F#	6	2dd	2A	2F#	2dd	2d	2F#	2A	2f#	2dd
2G#	5	2dd	2B	2G#	2dd	2e	2G#	2B	2e	2dd
=18	=18	=18	=18	=18	=18	=18	=18	=18	=18	=18
2A	.	2cc#	2c#	2A	2cc#	2e	2A	2A	2e	2cc#
2AA	.	2cc#	2ryy	2AA	2e	2a	2AA	2A	2e	2cc#
=19	=19	=19	=19	=19	=19	=19	=19	=19	=19	=19
2r	.	2r	2r	2r	2r	2r	2r	2r	2r	2r
2A	.	2ee	2e	2A	2ee	2cc#	2A	2c#	2e	2ee
=20	=20	=20	=20	=20	=20	=20	=20	=20	=20	=20
2G#	6	2ee	1e	2G#	2ee	2b	2G#	2B	2e	2ee
2A#X	5	2cc#	.	2A#X	2cc#	2f#	2A#X	2f#	2e	2cc#
=21	=21	=21	=21	=21	=21	=21	=21	=21	=21	=21
2B	.	2dd	2d	2B	2dd	2f#	2B	2f#	2d	2dd
2G#	6	2b	2e	2G#	2b	2b	2G#	2B	2e	2b
=22	=22	=22	=22	=22	=22	=22	=22	=22	=22	=22
2A	.	2cc#	2.e	2A	2cc#	2a	2A	2A	2e	2cc#
2E	.	2b	.	2E	2b	2g#	2E	2G#	(4e	2b
.	.	.	4d	.	.	.	.	.	4d)	.
=23	=23	=23	=23	=23	=23	=23	=23	=23	=23	=23
2AA	.	2a	2ryy	2AA	2c#	2e	2AA	2A	2c#	2a
2AA	.	2e	2A	2AA	2e	2c#	2AA	2A	2c#	2e
=24	=24	=24	=24	=24	=24	=24	=24	=24	=24	=24
2C#	6	2e	2A	2C#	2e	2c#	2C#	2A	2c#	2e
2E	7	2d	2G#	2E	2d	2B	2E	2G#	2B	2d
=25	=25	=25	=25	=25	=25	=25	=25	=25	=25	=25
2A	.	2c#	2E	2AA	2c#	2A	2A	2A	2A	2c#
2G#	6	2e	[2E	2GG#	2e	2B	2G#	2B	[2e	2e
=26	=26	=26	=26	=26	=26	=26	=26	=26	=26	=26
2F#	7	2a	2E]	2FF#	2a	2c#	2F#	2A	2e]	2a
2BB	7 #	2a	2D#X	2BB	2a	2B	2BB	2B	2d#X	2a
=27	=27	=27	=27	=27	=27	=27	=27	=27	=27	=27
2E	.	2g#	2E	2E	2g#	2B	2E	2B	2e	2g#
2E	.	2g#	2B	2E	2g#	2e	2E	2B	2e	2g#
=28	=28	=28	=28	=28	=28	=28	=28	=28	=28	=28
2r	.	2r	2r	2r	2r	2r	2r	2r	2r	2r
2G#	6	2b	2B	2G#	2b	2e	2G#	2B	2e	2b
=29	=29	=29	=29	=29	=29	=29	=29	=29	=29	=29
2F#	nr6 4 2	2b	2d	2F#	2b	2g#	2F#	2d	2g#	2b
2E#X	6	2cc#	2c#	2E#X	2cc#	2g#	2E#X	2c#	2g#	2cc#
=30	=30	=30	=30	=30	=30	=30	=30	=30	=30	=30
2F#	.	2a	2c#	2F#	2a	2f#	2F#	2c#	2f#	2a
2G#	5	2dd	2eni	2G#	2dd	[2b	2G#	[2B	2e	2dd
=31	=31	=31	=31	=31	=31	=31	=31	=31	=31	=31
2A	9	2cc#	1e	1A	2cc#	2b]	2A	2B]	2e	2cc#
2AA	8	2cc#	.	.	2cc#	2a	2AA	2A	2e	2cc#
=32	=32	=32	=32	=32	=32	=32	=32	=32	=32	=32
2E	.	2b	1e	1E	2b	2g#	2E	2G#	2e	2b
2E	.	2b	.	.	2b	2g#	2E	2G#	2e	2b
=33	=33	=33	=33	=33	=33	=33	=33	=33	=33	=33
2r	.	2r	2r	2r	2r	2r	2r	2r	2r	2r
[2C#	6	2a	2A	[2C#	2a	2e	[2C#	2A	2e	2a
=34	=34	=34	=34	=34	=34	=34	=34	=34	=34	=34
2C#]	2	2f#	2A	2C#]	2f#	1d	2C#]	2A	2d	2f#
2BB	6	2g#	2B	2BB	2g#	.	2BB	2B	2d	2g#
=35	=35	=35	=35	=35	=35	=35	=35	=35	=35	=35
2F#	.	2a	[1A	2F#	2a	2c#	2F#	2A	2c#	2a
2D	6 5	2b	.	2D	2b	2f#	2D	[2A	2f#	2b
=36	=36	=36	=36	=36	=36	=36	=36	=36	=36	=36
1E	6 4	2cc#	2A]	1E	2cc#	1e	2E	2A]	2e	2cc#
.	5 3	2b	4G#	.	2b	.	2E	2G#	2d	2b
.	.	.	4d	.	.	.	.	.	.	.
=37	=37	=37	=37	=37	=37	=37	=37	=37	=37	=37
2AA	.	2a	2ryy	2AA	2c#	2e	2AA	2A	2c#	2a
*	*	*	*v	*v	*	*	*	*	*	*
*	*	*	*	*v	*v	*	*	*	*
==	==	==	==	==	==	==	==	==
*-	*-	*-	*-	*-	*-	*-	*-	*-
!!!system-decoration: {(s1,s2,s3,s4)}{(s5,s6)}{(s7,s8)}
!!!RDF**kern: i = editorial accidental
!!!RDF**kern: > = above
!!!RDF**kern: < = below
!!!AGN: chorale
!!!EED: Derek Remeš
!!!EED2: Victor Phan
!!!END: 2023/11/28
!!!ENC: Wolfgang Drescher
!!!EEV: 2023/11/29
!!!title: @{ONM}. @{OTL}